gama.ui.shared/icons_svg/light/views/tabs/view.console.svg

<svg height="24.75" viewBox="-854.649 -2973.769 24.75 24.75" width="24.75" xmlns="http://www.w3.org/2000/svg"><path d="m-845.1575-2955.7947c.0777-.0156.1555 0 .2332.0311.8243.3886 1.7263.5909 2.6595.5909 3.437 0 6.2209-2.7838 6.2209-6.2208 0-3.4371-2.7917-6.2209-6.2287-6.2209s-6.2209 2.7838-6.2209 6.2209c0 1.3295.4199 2.5895 1.1742 3.6392.0855.1166.0933.2643.0389.3888l-.9487 2.0762 3.0638-.5132zm-3.6626 1.3919c-.311.0544-.5443-.2644-.4199-.5442l1.1586-2.535c-.7698-1.1432-1.1897-2.4963-1.1897-3.9115 0-3.8648 3.1338-6.9985 6.9985-6.9985s6.9985 3.1337 6.9985 6.9985c0 3.8647-3.1338 6.9985-6.9985 6.9985-1.0031 0-1.9829-.21-2.8772-.6144l-3.6703.6144z" fill="#5c76a1"/></svg>

<?xml version="1.0" encoding="UTF-8" standalone="no"?>
<!DOCTYPE svg PUBLIC "-//W3C//DTD SVG 1.1//EN" "http://www.w3.org/Graphics/SVG/1.1/DTD/svg11.dtd">
<svg xmlns="http://www.w3.org/2000/svg" xmlns:dc="http://purl.org/dc/elements/1.1/" version="1.1" xmlns:xl="http://www.w3.org/1999/xlink" viewBox="-854.6491 -2973.7685 24.75 24.75" width="24.75" height="24.75">
  <defs/>
  <g id="SOURCES" fill="none" stroke="none" stroke-dasharray="none" fill-opacity="1" stroke-opacity="1">
    <title>SOURCES</title>
    <g id="SOURCES_Light">
      <title>Light</title>
      <g id="Group_12734">
        <g id="Group_9815">
          <title>comment</title>
          <g id="Graphic_9816">
            <path d="M -845.1575 -2955.7947 C -845.0798 -2955.8103 -845.002 -2955.7947 -844.9243 -2955.7636 C -844.1 -2955.375 -843.198 -2955.1727 -842.2648 -2955.1727 C -838.8278 -2955.1727 -836.0439 -2957.9565 -836.0439 -2961.3935 C -836.0439 -2964.8306 -838.8356 -2967.6144 -842.2726 -2967.6144 C -845.7096 -2967.6144 -848.4935 -2964.8306 -848.4935 -2961.3935 C -848.4935 -2960.064 -848.0736 -2958.804 -847.3193 -2957.7543 C -847.2338 -2957.6377 -847.226 -2957.49 -847.2804 -2957.3655 L -848.2291 -2955.2893 L -845.1653 -2955.8025 Z M -848.8201 -2954.4028 C -849.1311 -2954.3484 -849.3644 -2954.6672 -849.24 -2954.947 L -848.0814 -2957.482 C -848.8512 -2958.6252 -849.2711 -2959.9783 -849.2711 -2961.3935 C -849.2711 -2965.2583 -846.1373 -2968.392 -842.2726 -2968.392 C -838.4079 -2968.392 -835.2741 -2965.2583 -835.2741 -2961.3935 C -835.2741 -2957.5288 -838.4079 -2954.395 -842.2726 -2954.395 C -843.2757 -2954.395 -844.2555 -2954.605 -845.1498 -2955.0094 L -848.8201 -2954.395 Z" fill="#5c76a1"/>
          </g>
        </g>
        <g id="Graphic_12706"/>
      </g>
    </g>
  </g>
</svg>
